outputs/icons/action/alarm_sharp.svg

<svg xmlns="http://www.w3.org/2000/svg" width="1200" height="1200" fill="none"><g clip-path="url(#a)"><path fill="#000" d="M625.005 400.003h-75v300.002l237.5 142.5 37.5-61.5-200-118.5zm241.85-309.5 230.35 192.25-64 76.75-230.5-192.15zm-533.699 0 64.101 76.8-230.4 192.2-64.001-76.8zm266.849 109.5c-248.499 0-449.999 201.5-449.999 450.002 0 248.5 201.5 450 449.999 450s450-201.5 450-450c0-248.502-201.5-450.002-450-450.002m0 800.002c-192.999 0-349.998-157-349.998-350 0-193.002 156.999-350.002 349.998-350.002 193 0 350 157 350 350.002 0 193-157 350-350 350"/></g><defs><clipPath id="a"><path fill="#fff" d="M0 0h1200v1200H0z"/></clipPath></defs></svg>

<svg width="1200" height="1200" viewBox="0 0 1200 1200" fill="none" xmlns="http://www.w3.org/2000/svg"><g clip-path="url(#clip0_117_804)"><path d="M625.005 400.003H550.005V700.005L787.505 842.505L825.005 781.005L625.005 662.505V400.003ZM866.855 90.503L1097.205 282.753L1033.205 359.503L802.705 167.353L866.855 90.503ZM333.156 90.503L397.257 167.303L166.857 359.503L102.856 282.703L333.156 90.503ZM600.005 200.003C351.506 200.003 150.006 401.503 150.006 650.005C150.006 898.505 351.506 1100.005 600.005 1100.005C848.505 1100.005 1050.005 898.505 1050.005 650.005C1050.005 401.503 848.505 200.003 600.005 200.003ZM600.005 1000.005C407.006 1000.005 250.007 843.005 250.007 650.005C250.007 457.003 407.006 300.003 600.005 300.003C793.005 300.003 950.005 457.003 950.005 650.005C950.005 843.005 793.005 1000.005 600.005 1000.005Z" fill="black"/></g><defs><clipPath id="clip0_117_804"><path width="24" fill="white" d="M0 0H1200V1200H0V0z"/></clipPath></defs></svg>
